!!!SOCIAL_FUNCTION:	songs of social dance
!!!PDT:	1936
!!!OTL: No_59_Song_of_Thanks_for_a_Pony.krn
!!!REG: Oklahoma and Montana
!!!LANG: Tone
!!!LING_GROUP: Algonquin
**kern
*staff1
=1-
*clefF4
*k[f#c#g#]
*M3/4
[4e\
(4.e\]
16c#\)
16r
=2
*M2/4
8.e\L
16c#\Jk
8B\
8r
=3
2e\
=4
*M3/4
2e\
8c#\L
8c#\J
=5
*M2/4
2B\
=6
8.A\L
16F#\Jk
8E\
8r
=7
2B\
=8
*M3/4
2B\
8.A\L
16F#\Jk
=9
*M2/4
4.A\
8F#\
=10
4E\
4E\
=11
(8E\L
16D#\Jk)
16r
4E\
=12
2E\
=13
4r
8.r
16E\
=14
4.e\
8e\
=15
4e\
4d#\
=16
8e\L
8e\J
8c#\L
8c#\J
=17
2B\
=18
8.A\L
16F#\Jk
8E\
8r
=19
2B\
=20
*M3/4
2B\
8.A\L
16F#\Jk
=21
*M2/4
4A\
8F#\
8r
=22
4E\
4E\
=23
8E\L
16D#\Jk
16r
4E\
=24
2E\
=25
(8E\L
8D#\J)
4r
==
*-
